X:1
T:Title
%%score { 1 | 2 }
L:1/8
Q:1/4=90
M:6/8
K:Bb
V:1 treble nm="Grand Piano"
V:2 bass 
V:1
 [DF][DB][DB] [DB][FA][EG] | [DF]3 .D3 | FEE AGF | [DB]6 | [DF][DB][DB] [DB][FA][EG] | [DF]3 .D3 | %6
w: J.~R.~Sweney * * * * *||||||
 CF[FA] [=Ec][EB]E | F6 | Fcc c=Bc | d3 .[DB]3 | Fcc c=Bc | d6 | [Fd][Fd][Fd] [Fd][_Af][Ad] | %13
w: |||||||
 [Ge]3 .G3 | FBA dd>c | [DB]6 | Fcc c=Bc | d3 .[DB]3 | Fcc c=Bc | d6 | [Fd][Fd][Fd] [Fd][_Af][Ad] | %21
w: ||||||||
 [Ge]3 .G3 | FBA dd>c | [DB]6 |] %24
w: |||
V:2
 [B,,B,][B,,F,][B,,F,] [B,,F,][B,,B,][B,,B,] | [B,,B,]3 .[B,,F,B,]3 | %2
 [F,A,C][F,A,C][F,A,C] [F,CE][F,B,E][F,A,E] | [B,,B,]6 | %4
 [B,,B,][B,,F,][B,,F,] [B,,F,][B,,B,][B,,B,] | [B,,B,]3 .[B,,F,B,]3 | %6
 [C,F,A,][C,A,C][C,C] [C,G,][C,G,][C,B,C] | [F,A,C]6 | %8
 [F,A,C][F,A,E][F,A,E] [F,A,E][F,_A,D][F,=A,E] | [B,F]3 .[B,,F,]3 | %10
 [F,A,C][F,A,E][F,A,E] [F,A,E][F,_A,D][F,=A,E] | [B,F]6 | %12
 [B,,F,][B,,F,][B,,F,] [B,,F,][B,,B,][B,,B,] | [E,B,]3 .[E,B,E]3 | %14
 [F,B,D][F,DF][F,CF] [F,B,F][F,B,F]>[F,A,E] | [B,,B,]6 | %16
 [F,A,C][F,A,E][F,A,E] [F,A,E][F,_A,D][F,=A,E] | [B,F]3 .[B,,F,]3 | %18
 [F,A,C][F,A,E][F,A,E] [F,A,E][F,_A,D][F,=A,E] | [B,F]6 | %20
 [B,,F,][B,,F,][B,,F,] [B,,F,][B,,B,][B,,B,] | [E,B,]3 .[E,B,E]3 | %22
 [F,B,D][F,DF][F,CF] [F,B,F][F,B,F]>[F,A,E] | [B,,B,]6 |] %24

